X:1
T:James Gibb editions
T:I was wandering and weary - Barnby
%%score [ ( 1 2 3 ) ( 4 5 ) ]
L:1/8
Q:1/4=84
M:3/4
K:F
V:1 treble nm="Midi_74"
V:2 treble 
V:3 treble 
V:4 bass nm="Midi_74"
V:5 bass 
V:1
"^Frederick William Faber\n(1814-63)""^I was wandering and weary""^Joseph Barnby\n(1838-96)""^The good Shepherd" AA | %1
w: 1 was|
"^Trebles only" A G G2 A2 | A2 G2 (GG) | (AB) c2 d2 | c2 c2 AA | A^G G2 =B2 | =B2 A2 cc | %7
w: wan- der- ing and|wea- ry, When my|Sa\- * viour came|to me~; For the|ways of sin grew|drea- ry, And the|
 c=B A2 B2 | A2 G2 GG | G3 A GA | G4 GG | G3 A ^FA | G4 ||"^Chorus" A2 | GF F2 B2 | A2 G2 B2 | %16
w: world had ceased to|woo me: And I|thought I heard Him|say, As He|came a- long His|way;|O|wand'- ring souls! come|near Me; My|
"^cresc." A G G2 d2 | d2 c4 |!f! A2 c2 f2 | e2 dG AB | A4 G2 | F4 || F6 | F6 |] %24
w: sheep should ne- ver|||* * I am the|Shep- herd|true.|||
V:2
 F2 | E4 F2 | D2 x2 E2 | F4 E2 | F2 C2 D2 | E4 E2 | E4 E2 | ED C2 [D^F]2 | D4 G2 | D4 E2 | F4 F2 | %11
w: |||||||||||
 E4 ^D2 | E4 || E2 | CC C2 F2 | D2 D2 D2 | DD D2 F2 | E2 E4 | F2 E2 F2 | G2 F z D2 | F4 E2 | F4 || %22
w: ||||||fear Me:|I am the|Shep- herd, the|Shep- herd|true.|
 D6 | C6 |] %24
w: A-|men.|
V:3
 x2 | x6 | x6 | x6 | x6 | x6 | x4 x2 | ^F4 x2 | ^F2 x2 x2 | x4 x2 | x4 x2 | x6 | x4 || x2 | x6 | %15
 x6 | x6 | x6 | x6 | x6 | x6 | x4 || x6 | x6 |] %24
V:4
 [F,A,C]2 | [F,B,C]4 [F,A,C]2 | [F,B,]4 [F,B,C]2 | [F,A,C]4 [F,G,B,]2 | [F,A,]4 [F,A,]2 | %5
 [E,=B,]4 [D,^G,]2 | [C,A,]4 A,,2 | D,4 D,2 | C2 =B,2 G,2 | [F,=B,]4 [E,C]2 | =B,2 G,2 A,2 | %11
 _B,4 A,2 | B,4 || C2 | B,A, A,2 D2 | B,2 B,2 D2 | CB, B,2 A,2 | %17
"^2 At first I would not hearken,\nBut put off till the morrow,\nTill life began to darken,\nAnd I grew sick with sorrow;\nThen I thought I heard Him say,\nAs He came along His way,\n[Refrain]\n" B,2 B,4 | %18
!f! C2 B,2 C2 | %19
"^3 At last I stopped to listen,\nHis voice could neer deceive me;\nI saw His kind eye glisten,\nSo anxious to relieve me;\nThen I knew I heard Him say,\nAs He came along His way, \n[Refrain]" ^C2"^0" D z G,2 | %20
 C4"^4 I thought His love would weaken\nAs more and more He knew me,\nBut it burneth like a beacon,\nAnd its light and heat go thro me;\nAnd I ever hear Him say,\nAs He goes along His way, \n[Refrain]" B,2 | %21
 A,4 || B,6 | A,6 |] %24
V:5
 x2 | x6 | x6 | x6 | x6 | x6 | x6 | x6 | G,4 z2 | z4 z2 | D,4 G,,2 | C,4 C,2 | C,4 || C,2 | %14
 F,F, F,2 F,2 | F,2 F,2 F,2 | F,F, F,2 F,2 | G,2 G,4 | F,2 G,2 A,2 | B,2 B, z B,,2 | C,4 C,2 | %21
 F,4 || B,,6 | F,6 |] %24

